Mebel/img/toolbox.svg

<svg width="40" height="40" viewBox="0 0 40 40" fill="none" xmlns="http://www.w3.org/2000/svg">
<g clip-path="url(#clip0_344_3128)">
<path d="M38.8281 4.11163C38.1808 4.11163 37.6562 4.63622 37.6562 5.2835V8.8034H33.5629C33.613 8.47137 33.6389 8.13232 33.6389 7.78808C33.6389 5.23925 32.1542 2.88696 29.8566 1.79504C29.3628 1.56036 28.7912 1.59484 28.3282 1.88751C27.8622 2.182 27.5839 2.68676 27.5839 3.23821V6.54846C27.218 6.62536 26.8427 6.62536 26.4767 6.54846V3.23821C26.4767 2.68676 26.1984 2.182 25.7327 1.88751C25.2695 1.59484 24.6982 1.56036 24.2044 1.79504C21.9067 2.88696 20.4221 5.23925 20.4221 7.78808C20.4221 8.13171 20.4483 8.47076 20.4993 8.8034H17.7673V5.46112C17.7673 4.12536 16.6858 3.03863 15.3564 3.03863H9.55353C8.22418 3.03863 7.14264 4.12536 7.14264 5.46112V8.8034H2.34375V5.2835C2.34375 4.63622 1.81915 4.11163 1.17188 4.11163C0.524597 4.11163 0 4.63622 0 5.2835V33.7149C0 36.3623 2.1524 38.5162 4.79767 38.5162H35.2023C37.8476 38.5162 40 36.3623 40 33.7149V5.2835C40 4.63622 39.4754 4.11163 38.8281 4.11163V4.11163ZM29.9341 15.448H37.6562V21.134H29.9338L29.9341 15.448ZM32.7374 11.1472H37.6562V13.1042H30.9848C31.7029 12.5702 32.2955 11.9037 32.7374 11.1472V11.1472ZM24.133 4.6463V7.24884C24.133 7.91259 24.5978 8.47015 25.2188 8.61297C26.4255 9.0744 27.789 9.05548 28.9828 8.55651C29.5569 8.31695 29.9277 7.75817 29.9277 7.13378V4.6463C30.7828 5.44647 31.2952 6.58325 31.2952 7.78808C31.2952 9.44396 30.3738 10.9222 28.891 11.6464C28.1006 12.0322 27.5897 12.8552 27.5897 13.7433L27.59 21.1343H26.2982L26.3071 13.6627C26.308 12.7878 25.8319 11.9946 25.0644 11.593C23.6465 10.8511 22.7658 9.393 22.7658 7.78808C22.7658 6.58325 23.2779 5.44677 24.133 4.6463V4.6463ZM15.3955 15.448H23.9612L23.9545 21.134H15.3955V15.448ZM23.0792 13.1042H15.3955V13.0893L16.9684 11.669C17.1387 11.5152 17.2845 11.3391 17.4033 11.1472H21.3293C21.7715 11.9031 22.3636 12.5702 23.0792 13.1042ZM9.48608 5.46112C9.48608 5.41778 9.5163 5.38238 9.55353 5.38238H15.3564C15.3934 5.38238 15.4236 5.41778 15.4236 5.46112V9.86724C15.4236 9.89166 15.4141 9.91455 15.3973 9.9295L13.6908 11.4706C13.2846 11.8375 13.0518 12.3618 13.0518 12.9092V21.134H11.8579V12.9092C11.8579 12.3618 11.6251 11.8375 11.2189 11.4706L9.51263 9.9298C9.49554 9.91455 9.48608 9.89166 9.48608 9.86724V5.46112ZM2.34375 15.448H9.51416V21.134H2.34375V15.448ZM7.50671 11.1472C7.62543 11.3391 7.7713 11.5152 7.94159 11.669L9.51447 13.0893V13.1042H2.34375V11.1472H7.50671ZM35.2023 36.1725H4.79767C3.44482 36.1725 2.34375 35.0699 2.34375 33.7149V23.4778H37.6562V33.7149C37.6562 35.0699 36.5552 36.1725 35.2023 36.1725V36.1725Z" fill="#B89A61"/>
<path d="M24.9115 30.9601C24.2752 30.9598 23.757 30.4416 23.7564 29.805C23.7561 29.4974 23.8757 29.2087 24.093 28.9914C24.31 28.7744 24.5987 28.6548 24.906 28.6548H24.9075C25.5545 28.6548 26.0791 28.1308 26.0794 27.4838C26.08 26.8365 25.5554 26.3116 24.9084 26.311H24.906C23.9728 26.311 23.0954 26.6745 22.4356 27.3343C22.0624 27.7072 21.7841 28.1503 21.6129 28.6334L17.7338 28.6307C17.2507 27.2769 15.9558 26.3049 14.4391 26.304H14.4382C13.7915 26.304 13.2669 26.828 13.2663 27.475C13.266 28.1223 13.7903 28.6472 14.4376 28.6478C15.0739 28.6481 15.592 29.1663 15.5923 29.8026C15.5927 30.1105 15.473 30.3992 15.256 30.6165C15.0391 30.8334 14.7504 30.9528 14.4431 30.9528H14.4415C13.7946 30.9528 13.27 31.4771 13.2697 32.124C13.269 32.771 13.7933 33.2962 14.4406 33.2965H14.4431C15.3763 33.2965 16.2537 32.9333 16.9131 32.2739C17.2864 31.9006 17.5647 31.4575 17.7362 30.9744L21.6153 30.9772C22.0984 32.3306 23.3932 33.3029 24.91 33.3038H24.9109C25.5576 33.3038 26.0822 32.7798 26.0828 32.1329C26.0831 31.4856 25.5588 30.9607 24.9115 30.9601Z" fill="#B89A61"/>
</g>
<defs>
<clipPath id="clip0_344_3128">
<rect width="40" height="40" fill="white"/>
</clipPath>
</defs>
</svg>

<svg width="40" height="40" fill="none" xmlns="http://www.w3.org/2000/svg"><g clip-path="url(#clip0_344_3128)" fill="#B89A61"><path d="M38.828 4.112c-.647 0-1.172.524-1.172 1.171v3.52h-4.093a6.664 6.664 0 00-3.706-7.008 1.579 1.579 0 00-1.529.093 1.59 1.59 0 00-.744 1.35v3.31a2.686 2.686 0 01-1.107 0v-3.31a1.59 1.59 0 00-.744-1.35 1.578 1.578 0 00-1.529-.093A6.663 6.663 0 0020.5 8.803h-2.732V5.461a2.42 2.42 0 00-2.41-2.422H9.553a2.42 2.42 0 00-2.41 2.421v3.342h-4.8v-3.52a1.172 1.172 0 10-2.343 0v28.432a4.805 4.805 0 004.798 4.801h30.404a4.805 4.805 0 004.798-4.8V5.283c0-.647-.525-1.171-1.172-1.171zm-8.894 11.336h7.722v5.686h-7.722v-5.686zm2.803-4.3h4.92v1.956h-6.672a6.561 6.561 0 001.752-1.957zm-8.604-6.502V7.25c0 .664.465 1.221 1.086 1.364a5.098 5.098 0 003.764-.056c.574-.24.945-.799.945-1.423V4.646a4.316 4.316 0 011.367 3.142 4.262 4.262 0 01-2.404 3.858 2.343 2.343 0 00-1.301 2.097v7.391h-1.292l.01-7.471c0-.875-.476-1.668-1.244-2.07a4.28 4.28 0 01-2.298-3.805c0-1.205.512-2.341 1.367-3.142zm-8.737 10.802h8.565l-.006 5.686h-8.56v-5.686zm7.683-2.344h-7.684v-.015l1.573-1.42c.17-.154.317-.33.435-.522h3.926a6.598 6.598 0 001.75 1.957zM9.486 5.461c0-.043.03-.079.068-.079h5.802c.037 0 .068.036.068.08v4.405c0 .025-.01.048-.027.063l-1.706 1.54a1.942 1.942 0 00-.64 1.44v8.224h-1.193v-8.225c0-.547-.233-1.072-.64-1.438L9.514 9.93a.083.083 0 01-.027-.063V5.461zm-7.142 9.987h7.17v5.686h-7.17v-5.686zm5.163-4.3c.118.191.264.367.435.521l1.572 1.42v.015h-7.17v-1.957h5.163zm27.695 25.025H4.798a2.459 2.459 0 01-2.454-2.458V23.478h35.312v10.237a2.459 2.459 0 01-2.454 2.457z"/><path d="M24.912 30.96a1.158 1.158 0 01-1.156-1.155 1.145 1.145 0 011.15-1.15h.002a1.172 1.172 0 000-2.344h-.002a3.47 3.47 0 00-2.47 1.023 3.475 3.475 0 00-.823 1.3l-3.88-.003a3.506 3.506 0 00-3.294-2.327 1.172 1.172 0 00-.001 2.344 1.156 1.156 0 01.818 1.968 1.142 1.142 0 01-.813.337h-.002a1.172 1.172 0 000 2.344h.002a3.47 3.47 0 002.47-1.023c.373-.373.652-.817.823-1.3l3.88.003a3.506 3.506 0 003.294 2.327 1.172 1.172 0 00.002-2.344z"/></g><defs><clipPath id="clip0_344_3128"><path fill="#fff" d="M0 0h40v40H0z"/></clipPath></defs></svg>
